icons/sun-high.svg

<svg xmlns="http://www.w3.org/2000/svg" width="96" height="96"><path d="M24 48c0-6.4 2.5-12.5 7-17s10.6-7 17-7 12.5 2.5 17 7 7 10.6 7 17-2.5 12.5-7 17-10.6 7-17 7-12.5-2.5-17-7-7-10.6-7-17zm8 0c0-4.2 1.7-8.3 4.7-11.3S43.8 32 48 32c4.2 0 8.3 1.7 11.3 4.7S64 43.8 64 48c0 4.2-1.7 8.3-4.7 11.3S52.2 64 48 64c-4.2 0-8.3-1.7-11.3-4.7S32 52.2 32 48zM44 8c0-1.1.4-2.1 1.2-2.8.7-.8 1.7-1.2 2.8-1.2 1.1 0 2.1.4 2.8 1.2.8.7 1.2 1.7 1.2 2.8v8c0 1.1-.4 2.1-1.2 2.8-.7.8-1.7 1.2-2.8 1.2-1.1 0-2.1-.4-2.8-1.2-.8-.7-1.2-1.7-1.2-2.8V8zm0 72c0-1.1.4-2.1 1.2-2.8.7-.8 1.7-1.2 2.8-1.2 1.1 0 2.1.4 2.8 1.2.8.7 1.2 1.7 1.2 2.8v8c0 1.1-.4 2.1-1.2 2.8-.7.8-1.7 1.2-2.8 1.2-1.1 0-2.1-.4-2.8-1.2-.8-.7-1.2-1.7-1.2-2.8v-8zm36-28c-1.1 0-2.1-.4-2.8-1.2-.8-.7-1.2-1.7-1.2-2.8 0-1.1.4-2.1 1.2-2.8.7-.8 1.7-1.2 2.8-1.2h8c1.1 0 2.1.4 2.8 1.2.8.7 1.2 1.7 1.2 2.8 0 1.1-.4 2.1-1.2 2.8-.7.8-1.7 1.2-2.8 1.2h-8zm-64-8c1.1 0 2.1.4 2.8 1.2.8.7 1.2 1.7 1.2 2.8 0 1.1-.4 2.1-1.2 2.8-.7.8-1.7 1.2-2.8 1.2H8c-1.1 0-2.1-.4-2.8-1.2C4.4 50.1 4 49.1 4 48c0-1.1.4-2.1 1.2-2.8.7-.8 1.7-1.2 2.8-1.2h8zm10.8-22.8c.8.7 1.2 1.7 1.2 2.8 0 1.1-.4 2.1-1.2 2.8-.7.8-1.7 1.2-2.8 1.2-1.1 0-2.1-.4-2.8-1.2l-7-7c-.8-.7-1.2-1.7-1.2-2.8 0-1.1.4-2.1 1.2-2.8.7-.8 1.7-1.2 2.8-1.2 1.1 0 2.1.4 2.8 1.2l7 7zm42.4 0l7-7c.7-.8 1.7-1.2 2.8-1.2 1.1 0 2.1.4 2.8 1.2.8.7 1.2 1.7 1.2 2.8 0 1.1-.4 2.1-1.2 2.8l-7 7c-.7.8-1.7 1.2-2.8 1.2-1.1 0-2.1-.4-2.8-1.2-.8-.7-1.2-1.7-1.2-2.8 0-1.1.4-2.1 1.2-2.8zm-55 55l7-7c.7-.8 1.7-1.2 2.8-1.2 1.1 0 2.1.4 2.8 1.2.8.7 1.2 1.7 1.2 2.8 0 1.1-.4 2.1-1.2 2.8l-7 7c-.7.8-1.7 1.2-2.8 1.2-1.1 0-2.1-.4-2.8-1.2-.8-.7-1.2-1.7-1.2-2.8 0-1.1.4-2.1 1.2-2.8zm62 5.6l-7-7c-.8-.7-1.2-1.7-1.2-2.8 0-1.1.4-2.1 1.2-2.8.7-.8 1.7-1.2 2.8-1.2 1.1 0 2.1.4 2.8 1.2l7 7c.8.7 1.2 1.7 1.2 2.8 0 1.1-.4 2.1-1.2 2.8-.7.8-1.7 1.2-2.8 1.2-1.1 0-2.1-.4-2.8-1.2z" fill-rule="evenodd" fill="#454545"/></svg>

<?xml version="1.0" standalone="no"?><!-- Generator: Gravit.io --><svg xmlns="http://www.w3.org/2000/svg" xmlns:xlink="http://www.w3.org/1999/xlink" width="96" height="96"><path d=" M 24 48 C 24 41.6 26.5 35.5 31 31 C 35.5 26.5 41.6 24 48 24 C 54.4 24 60.5 26.5 65 31 C 69.5 35.5 72 41.6 72 48 C 72 54.4 69.5 60.5 65 65 C 60.5 69.5 54.4 72 48 72 C 41.6 72 35.5 69.5 31 65 C 26.5 60.5 24 54.4 24 48 Z  M 32 48 C 32 43.8 33.7 39.7 36.7 36.7 C 39.7 33.7 43.8 32 48 32 C 52.2 32 56.3 33.7 59.3 36.7 C 62.3 39.7 64 43.8 64 48 C 64 52.2 62.3 56.3 59.3 59.3 C 56.3 62.3 52.2 64 48 64 C 43.8 64 39.7 62.3 36.7 59.3 C 33.7 56.3 32 52.2 32 48 Z  M 44 8 C 44 6.9 44.4 5.9 45.2 5.2 C 45.9 4.4 46.9 4 48 4 C 49.1 4 50.1 4.4 50.8 5.2 C 51.6 5.9 52 6.9 52 8 L 52 16 C 52 17.1 51.6 18.1 50.8 18.8 C 50.1 19.6 49.1 20 48 20 C 46.9 20 45.9 19.6 45.2 18.8 C 44.4 18.1 44 17.1 44 16 L 44 8 Z  M 44 80 C 44 78.9 44.4 77.9 45.2 77.2 C 45.9 76.4 46.9 76 48 76 C 49.1 76 50.1 76.4 50.8 77.2 C 51.6 77.9 52 78.9 52 80 L 52 88 C 52 89.1 51.6 90.1 50.8 90.8 C 50.1 91.6 49.1 92 48 92 C 46.9 92 45.9 91.6 45.2 90.8 C 44.4 90.1 44 89.1 44 88 L 44 80 Z  M 80 52 C 78.9 52 77.9 51.6 77.2 50.8 C 76.4 50.1 76 49.1 76 48 C 76 46.9 76.4 45.9 77.2 45.2 C 77.9 44.4 78.9 44 80 44 L 88 44 C 89.1 44 90.1 44.4 90.8 45.2 C 91.6 45.9 92 46.9 92 48 C 92 49.1 91.6 50.1 90.8 50.8 C 90.1 51.6 89.1 52 88 52 L 80 52 Z  M 16 44 C 17.1 44 18.1 44.4 18.8 45.2 C 19.6 45.9 20 46.9 20 48 C 20 49.1 19.6 50.1 18.8 50.8 C 18.1 51.6 17.1 52 16 52 L 8 52 C 6.9 52 5.9 51.6 5.2 50.8 C 4.4 50.1 4 49.1 4 48 C 4 46.9 4.4 45.9 5.2 45.2 C 5.9 44.4 6.9 44 8 44 L 16 44 Z  M 26.8 21.2 C 27.6 21.9 28 22.9 28 24 C 28 25.1 27.6 26.1 26.8 26.8 C 26.1 27.6 25.1 28 24 28 C 22.9 28 21.9 27.6 21.2 26.8 L 14.2 19.8 C 13.4 19.1 13 18.1 13 17 C 13 15.9 13.4 14.9 14.2 14.2 C 14.9 13.4 15.9 13 17 13 C 18.1 13 19.1 13.4 19.8 14.2 L 26.8 21.2 Z  M 69.2 21.2 L 76.2 14.2 C 76.9 13.4 77.9 13 79 13 C 80.1 13 81.1 13.4 81.8 14.2 C 82.6 14.9 83 15.9 83 17 C 83 18.1 82.6 19.1 81.8 19.8 L 74.8 26.8 C 74.1 27.6 73.1 28 72 28 C 70.9 28 69.9 27.6 69.2 26.8 C 68.4 26.1 68 25.1 68 24 C 68 22.9 68.4 21.9 69.2 21.2 Z  M 14.2 76.2 L 21.2 69.2 C 21.9 68.4 22.9 68 24 68 C 25.1 68 26.1 68.4 26.8 69.2 C 27.6 69.9 28 70.9 28 72 C 28 73.1 27.6 74.1 26.8 74.8 L 19.8 81.8 C 19.1 82.6 18.1 83 17 83 C 15.9 83 14.9 82.6 14.2 81.8 C 13.4 81.1 13 80.1 13 79 C 13 77.9 13.4 76.9 14.2 76.2 Z  M 76.2 81.8 L 69.2 74.8 C 68.4 74.1 68 73.1 68 72 C 68 70.9 68.4 69.9 69.2 69.2 C 69.9 68.4 70.9 68 72 68 C 73.1 68 74.1 68.4 74.8 69.2 L 81.8 76.2 C 82.6 76.9 83 77.9 83 79 C 83 80.1 82.6 81.1 81.8 81.8 C 81.1 82.6 80.1 83 79 83 C 77.9 83 76.9 82.6 76.2 81.8 Z " fill-rule="evenodd" fill="#454545" stroke="none"/><mask id="_mask_MiyXsM2PQ5IaEL6HL3qSwrILTq14d1Hm"><path d=" M 24 48 C 24 41.6 26.5 35.5 31 31 C 35.5 26.5 41.6 24 48 24 C 54.4 24 60.5 26.5 65 31 C 69.5 35.5 72 41.6 72 48 C 72 54.4 69.5 60.5 65 65 C 60.5 69.5 54.4 72 48 72 C 41.6 72 35.5 69.5 31 65 C 26.5 60.5 24 54.4 24 48 Z  M 32 48 C 32 43.8 33.7 39.7 36.7 36.7 C 39.7 33.7 43.8 32 48 32 C 52.2 32 56.3 33.7 59.3 36.7 C 62.3 39.7 64 43.8 64 48 C 64 52.2 62.3 56.3 59.3 59.3 C 56.3 62.3 52.2 64 48 64 C 43.8 64 39.7 62.3 36.7 59.3 C 33.7 56.3 32 52.2 32 48 Z  M 44 8 C 44 6.9 44.4 5.9 45.2 5.2 C 45.9 4.4 46.9 4 48 4 C 49.1 4 50.1 4.4 50.8 5.2 C 51.6 5.9 52 6.9 52 8 L 52 16 C 52 17.1 51.6 18.1 50.8 18.8 C 50.1 19.6 49.1 20 48 20 C 46.9 20 45.9 19.6 45.2 18.8 C 44.4 18.1 44 17.1 44 16 L 44 8 Z  M 44 80 C 44 78.9 44.4 77.9 45.2 77.2 C 45.9 76.4 46.9 76 48 76 C 49.1 76 50.1 76.4 50.8 77.2 C 51.6 77.9 52 78.9 52 80 L 52 88 C 52 89.1 51.6 90.1 50.8 90.8 C 50.1 91.6 49.1 92 48 92 C 46.9 92 45.9 91.6 45.2 90.8 C 44.4 90.1 44 89.1 44 88 L 44 80 Z  M 80 52 C 78.9 52 77.9 51.6 77.2 50.8 C 76.4 50.1 76 49.1 76 48 C 76 46.9 76.4 45.9 77.2 45.2 C 77.9 44.4 78.9 44 80 44 L 88 44 C 89.1 44 90.1 44.4 90.8 45.2 C 91.6 45.9 92 46.9 92 48 C 92 49.1 91.6 50.1 90.8 50.8 C 90.1 51.6 89.1 52 88 52 L 80 52 Z  M 16 44 C 17.1 44 18.1 44.4 18.8 45.2 C 19.6 45.9 20 46.9 20 48 C 20 49.1 19.6 50.1 18.8 50.8 C 18.1 51.6 17.1 52 16 52 L 8 52 C 6.9 52 5.9 51.6 5.2 50.8 C 4.4 50.1 4 49.1 4 48 C 4 46.9 4.4 45.9 5.2 45.2 C 5.9 44.4 6.9 44 8 44 L 16 44 Z  M 26.8 21.2 C 27.6 21.9 28 22.9 28 24 C 28 25.1 27.6 26.1 26.8 26.8 C 26.1 27.6 25.1 28 24 28 C 22.9 28 21.9 27.6 21.2 26.8 L 14.2 19.8 C 13.4 19.1 13 18.1 13 17 C 13 15.9 13.4 14.9 14.2 14.2 C 14.9 13.4 15.9 13 17 13 C 18.1 13 19.1 13.4 19.8 14.2 L 26.8 21.2 Z  M 69.2 21.2 L 76.2 14.2 C 76.9 13.4 77.9 13 79 13 C 80.1 13 81.1 13.4 81.8 14.2 C 82.6 14.9 83 15.9 83 17 C 83 18.1 82.6 19.1 81.8 19.8 L 74.8 26.8 C 74.1 27.6 73.1 28 72 28 C 70.9 28 69.9 27.6 69.2 26.8 C 68.4 26.1 68 25.1 68 24 C 68 22.9 68.4 21.9 69.2 21.2 Z  M 14.2 76.2 L 21.2 69.2 C 21.9 68.4 22.9 68 24 68 C 25.1 68 26.1 68.4 26.8 69.2 C 27.6 69.9 28 70.9 28 72 C 28 73.1 27.6 74.1 26.8 74.8 L 19.8 81.8 C 19.1 82.6 18.1 83 17 83 C 15.9 83 14.9 82.6 14.2 81.8 C 13.4 81.1 13 80.1 13 79 C 13 77.9 13.4 76.9 14.2 76.2 Z  M 76.2 81.8 L 69.2 74.8 C 68.4 74.1 68 73.1 68 72 C 68 70.9 68.4 69.9 69.2 69.2 C 69.9 68.4 70.9 68 72 68 C 73.1 68 74.1 68.4 74.8 69.2 L 81.8 76.2 C 82.6 76.9 83 77.9 83 79 C 83 80.1 82.6 81.1 81.8 81.8 C 81.1 82.6 80.1 83 79 83 C 77.9 83 76.9 82.6 76.2 81.8 Z " fill-rule="evenodd" fill="white" stroke="none"/></mask><path d=" M 24 48 C 24 41.6 26.5 35.5 31 31 C 35.5 26.5 41.6 24 48 24 C 54.4 24 60.5 26.5 65 31 C 69.5 35.5 72 41.6 72 48 C 72 54.4 69.5 60.5 65 65 C 60.5 69.5 54.4 72 48 72 C 41.6 72 35.5 69.5 31 65 C 26.5 60.5 24 54.4 24 48 Z  M 32 48 C 32 43.8 33.7 39.7 36.7 36.7 C 39.7 33.7 43.8 32 48 32 C 52.2 32 56.3 33.7 59.3 36.7 C 62.3 39.7 64 43.8 64 48 C 64 52.2 62.3 56.3 59.3 59.3 C 56.3 62.3 52.2 64 48 64 C 43.8 64 39.7 62.3 36.7 59.3 C 33.7 56.3 32 52.2 32 48 Z  M 44 8 C 44 6.9 44.4 5.9 45.2 5.2 C 45.9 4.4 46.9 4 48 4 C 49.1 4 50.1 4.4 50.8 5.2 C 51.6 5.9 52 6.9 52 8 L 52 16 C 52 17.1 51.6 18.1 50.8 18.8 C 50.1 19.6 49.1 20 48 20 C 46.9 20 45.9 19.6 45.2 18.8 C 44.4 18.1 44 17.1 44 16 L 44 8 Z  M 44 80 C 44 78.9 44.4 77.9 45.2 77.2 C 45.9 76.4 46.9 76 48 76 C 49.1 76 50.1 76.4 50.8 77.2 C 51.6 77.9 52 78.9 52 80 L 52 88 C 52 89.1 51.6 90.1 50.8 90.8 C 50.1 91.6 49.1 92 48 92 C 46.9 92 45.9 91.6 45.2 90.8 C 44.4 90.1 44 89.1 44 88 L 44 80 Z  M 80 52 C 78.9 52 77.9 51.6 77.2 50.8 C 76.4 50.1 76 49.1 76 48 C 76 46.9 76.4 45.9 77.2 45.2 C 77.9 44.4 78.9 44 80 44 L 88 44 C 89.1 44 90.1 44.4 90.8 45.2 C 91.6 45.9 92 46.9 92 48 C 92 49.1 91.6 50.1 90.8 50.8 C 90.1 51.6 89.1 52 88 52 L 80 52 Z  M 16 44 C 17.1 44 18.1 44.4 18.8 45.2 C 19.6 45.9 20 46.9 20 48 C 20 49.1 19.6 50.1 18.8 50.8 C 18.1 51.6 17.1 52 16 52 L 8 52 C 6.9 52 5.9 51.6 5.2 50.8 C 4.4 50.1 4 49.1 4 48 C 4 46.9 4.4 45.9 5.2 45.2 C 5.9 44.4 6.9 44 8 44 L 16 44 Z  M 26.8 21.2 C 27.6 21.9 28 22.9 28 24 C 28 25.1 27.6 26.1 26.8 26.8 C 26.1 27.6 25.1 28 24 28 C 22.9 28 21.9 27.6 21.2 26.8 L 14.2 19.8 C 13.4 19.1 13 18.1 13 17 C 13 15.9 13.4 14.9 14.2 14.2 C 14.9 13.4 15.9 13 17 13 C 18.1 13 19.1 13.4 19.8 14.2 L 26.8 21.2 Z  M 69.2 21.2 L 76.2 14.2 C 76.9 13.4 77.9 13 79 13 C 80.1 13 81.1 13.4 81.8 14.2 C 82.6 14.9 83 15.9 83 17 C 83 18.1 82.6 19.1 81.8 19.8 L 74.8 26.8 C 74.1 27.6 73.1 28 72 28 C 70.9 28 69.9 27.6 69.2 26.8 C 68.4 26.1 68 25.1 68 24 C 68 22.9 68.4 21.9 69.2 21.2 Z  M 14.2 76.2 L 21.2 69.2 C 21.9 68.4 22.9 68 24 68 C 25.1 68 26.1 68.4 26.8 69.2 C 27.6 69.9 28 70.9 28 72 C 28 73.1 27.6 74.1 26.8 74.8 L 19.8 81.8 C 19.1 82.6 18.1 83 17 83 C 15.9 83 14.9 82.6 14.2 81.8 C 13.4 81.1 13 80.1 13 79 C 13 77.9 13.4 76.9 14.2 76.2 Z  M 76.2 81.8 L 69.2 74.8 C 68.4 74.1 68 73.1 68 72 C 68 70.9 68.4 69.9 69.2 69.2 C 69.9 68.4 70.9 68 72 68 C 73.1 68 74.1 68.4 74.8 69.2 L 81.8 76.2 C 82.6 76.9 83 77.9 83 79 C 83 80.1 82.6 81.1 81.8 81.8 C 81.1 82.6 80.1 83 79 83 C 77.9 83 76.9 82.6 76.2 81.8 Z " fill-rule="evenodd" fill="none" stroke="none" stroke-width="16" mask="url(#_mask_MiyXsM2PQ5IaEL6HL3qSwrILTq14d1Hm)"/></svg>
